X:1
T:Les Sept Ivresses
T:Le rêve
T:Les Sept Ivresses
T:5. Le rêve
T:Holmès, Augusta Mary Anne
T:idem
T:OpenScore (CC0)
T:OpenScore (CC0)
T:OpenScore (CC0)
T:OpenScore (CC0)
C:Holmès, Augusta Mary Anne
Z:idem
Z:OpenScore (CC0)
%%score 1 { ( 2 5 ) | ( 3 4 ) }
L:1/8
Q:1/8=100
M:9/8
K:B
V:1 treble nm="Chant\nVoice"
V:2 treble nm="Piano"
V:5 treble 
V:3 treble 
V:4 treble 
V:1
"^Largo non troppo" z9 | z9 | z9 | z9 | z2 z z2!pp! d- d2 d | %5
w: ||||Dans * un|
!>(! (dB)!>)! c!>(! (dB)!>)! c!>(! d B!>)! c |!>(! (d B)!>)! c!>(! (d B)!>)! c d2 z | %7
w: beau _ jar- din _ aux clai- res fon-|tai- nes Nous dor- mons tous deux,|
!f! (f2[Q:1/4=48]"^poco rall." ^e-) e[Q:1/8=90] B!>(! d[Q:1/8=85] (c G) B!>)! | %8
w: Pris aux _ ten- dres chai- nes de|
[Q:1/4=50]"^a Tempo"!p! A G F c2 z e2 e |!>(! (ec)!>)! d!>(! e c!>)! d!>(! (ec)!>)! d | %10
w: nos bras heu- reux! Tes che-|\- veux _ dé- faits cou- vrent mon _ é-|
 (e c) d e c d e z!f! g- ||[M:12/8] g2 ^^f- f c e (d2 ^^F) c z!pp! B || %12
w: pau- le D'un long voi- le d'or, Et|_ mon _ souf- fle frô- * le Ta|
[M:9/8] A G F c3- c z!p! c ||[M:12/8] f3- f d ^e f d e (fd) e ||[M:9/8]!<(! f d ^e f d e f2!<)! z | %15
w: lè- vre qui dort! _ Ton|cœur _ op- pres- sé d'une an- goi- sse heu-|reu- se Bat con- tre le mien!|
 (^^f2 A2)!pp! z !>!^f !>!f !>!f z | (^e3 G) z B A G F | c3- c2 z!p! d2 d | %18
w: Dors, _ mon a- mou-|reu- se, Oh dors, ne crains|rien! _ Car les|
!<(! (dB) c d (Bc) d B c!<)! | (d B) c d B c d3 |!mf! f3!>(! d B F G A B!>)! || %21
w: verts _ hal- liers, l'on- * de qui mur-|\- mu- re Des re- frains si doux,|Tou- te la na- tu- re Se|
[M:6/8]!p! (^e2 d) c2 G ||[M:9/8] c3- c2 z z2 c ||[M:12/8]"^crescendo" =g3- g e f (ge) f g e f | %24
w: pen- * che vers|nous! _ Hé-|las, _ le ré- veil _ où rien ne me|
 =g e f g e f g2 z!f! g2 g | (^g3!>(! f2) (^B e2 d G)!>)! z!p! B ||[M:9/8] A G F c3- c z!pp! F | %27
w: res- te Que de t'a- do- rer Le ré-|veil _ fu- nes- * te Va|nous sé- pa- rer! _ Le|
!<(! d3- d B c d B c!<)! | (dB) c d B c d B c | d z!mf!!>(! (f- f3!>)! ^e2) z | %30
w: rê- * ve di- vin où notre|â- * me trem- ble Va nous être ô-|té! Ah! _ _|
 z2!p! B!>(! (d3 c2)!>)! z | z2 z z2!pp! z[Q:1/8=95]"^rall." G A B | %32
w: dor- mir _|dor- mir en-|
[Q:1/8=92] (d6[Q:1/8=90] F2) z ||[M:12/8][Q:1/8=100]!<(! e3 e3 e3- e2 d!<)! | %34
w: sem- ble|Pour l'é- ter- * ni-|
[Q:1/8=90] f12[Q:1/8=85][Q:1/8=80][Q:1/8=75] |] %35
w: té!|
V:2
!pp! ([bd']3 [=gb]6 | [d=g]3 [Bd]6) |!>(! ([=GB]6- [GB]3 | [^^FA]6- [FA]3)!>)! | %4
!<(! (^B3 c3 ^^c3!<)! |!pp! [Bd]3) ([Bd^^f]3 [Bdg]3 | [Bd=a]3 [Bd^a]3 [db]2) z | %7
 z2!p! [^eb]- [eb]3- [eb]3 | [=ea]3!>(! (!arpeggio!g3 =g3-)!>)! | [ce]3!<(! ([ce^g]3 [ce=a]3 | %10
 [ce^a]3 [eb]3!<)! [e^b]2) z ||[M:12/8]!p! z2 [c^^fc']- [cfc']6- [cfc'] z [db] || %12
[M:9/8] x3!>(! (g3 =g3)!>)! ||[M:12/8] [=Adf]2 z!p!!<(! ([df=a]3 [df^a]3 [dfb]3!<)! || %14
[M:9/8] [df^b]3 [dfc']3 [df^^c']2) z |!p! !arpeggio![c^^fc']6 !arpeggio![^B^f^b]3 | %16
 !arpeggio![=B^e=b]3- [Beb]2 z !arpeggio![A=ea]3 | (g3 =g3 [df-]3) |!pp! [Bdf]3 ([Bd^^f]3 [Bdg]3 | %19
!<(! [Bd=a]3 [Bd^a]3 [db]3)!<)! |!mf! ([d-f-c']2 [dfb]-) [dfb]3 !arpeggio![B^eb]3- || %21
[M:6/8] [B^eb]6 ||[M:9/8]!pp! (a3 g3 =g3-) || %23
[M:12/8] [Ae=g]2"_crescendo" z ([e=g^b]3 [egc']3 [eg=d']3 | [=g^d']3 [ge']3!f! [g=f']3-) [gf']2 z | %25
!f! x3 x3!p! x3 g3 ||[M:9/8] c3 (!arpeggio![A-e-g]3 [Ae=g]3) |!<(! ([Bdf]3 [Bd^^f]3!<)! [Bdg]3 | %28
 [Bd=a]3 [d^a]3 [db]3 | [d^b]2) z z2 z!p! !arpeggio![^e=b]3- | [^eb]6- [eb]3- | [^eb]6- [eb]2 z | %32
!p! (g3!>(! =g3 f3)!>)! ||[M:12/8]!p! !arpeggio![Bcb]12 | %34
"_rall."!>(! !arpeggio![Bdb]2 z (D/F/B/d/f/b/) d'3-!>)!!pp! d'2 !fermata!z |] %35
V:3
 (=g3 d6 | B3 =G6) | !>!D3 D6 | !>!D3 D6 | (!>!^^F6 z2 z | %5
 ([B,D^F]3) !arpeggio![B,D^^F]3 !arpeggio![B,DG]3 | %6
 !arpeggio![B,D=A]3 !arpeggio![B,D^A]3 !arpeggio![B,DB]2) z | %7
[K:bass]!ped! z2 !arpeggio![G,CG]- [G,CG]3- [G,CG]3!ped-up! | %8
 !arpeggio![F,CF]3-!ped! [F,CF]2 z z2 z!ped-up! | %9
 z2 z[K:treble] (!arpeggio![CEG]3 !arpeggio![CE=A]3 | %10
 !arpeggio![CE^A]3 !arpeggio![CEB]3 !arpeggio![CE^B]2) z || %11
[M:12/8][K:bass]!ped! z2 !arpeggio![A,DA]- [A,DA]6-!ped-up! [A,DA] z [B,G] || %12
[M:9/8] !arpeggio![CF]3- [CF]2 z z2 z || %13
[M:12/8] =C,2 z[K:treble] (!arpeggio![DF=A]3 !arpeggio![DF^A]3 !arpeggio![DFB]3 || %14
[M:9/8] !arpeggio![DF^B]3 !arpeggio![DFc]3 !arpeggio![DF^^c]2) z | %15
 !arpeggio![A,DA]6 !arpeggio![G,DG]3 | !arpeggio![G,CG]3- [G,CG]2 z !arpeggio![CF]2 z | %17
[K:bass] F,,6- F,,3 |[K:treble] (!arpeggio![B,DF]3 !arpeggio![B,D^^F]3 !arpeggio![B,DG]3 | %19
 !arpeggio![B,D=A]3 !arpeggio![B,D^A]3 !arpeggio![B,DB]3) | %20
[K:bass]!ped! z2 [F,B,D]- [F,B,D]2!ped-up! z x3 ||[M:6/8] [C,C]6 || %22
[M:9/8] !arpeggio![F,C]6- [F,C-]3 || %23
[M:12/8] [C,C]2 z[K:treble] (!arpeggio![E=G^B]3 !arpeggio![EGc]3 !arpeggio![EG=d]3 | %24
 !arpeggio![E=G^d]3 !arpeggio![EGe]3 (!arpeggio![E-G=f-]3) [EGf]2) z | %25
!ped! !arpeggio![DGd]3- [DGd]3!ped-up![K:bass] F3- F2 E- ||[M:9/8] [F,E]3-!ped! [F,E]2 z z2 z | %27
 B,,,2!ped-up! z[K:treble] !arpeggio![B,D^^F]3 !arpeggio![B,DG]3 | %28
 !arpeggio![B,D=A]3 !arpeggio![B,D^A]3 !arpeggio![B,DB]3 | %29
 !arpeggio![B,D^B]2 z z2 z!ped! !arpeggio![G,C=B]3- | [G,CB]6- [G,CB]3- | %31
 [G,CB]6- [G,CB]2!ped-up! z |[K:bass]"^rall."!ped! !arpeggio![F,B,D]6- [F,B,D]3!ped-up! || %33
[M:12/8]!ped! !arpeggio![=G,B,CE]12!ped-up! | %34
!ped! (B,,,/F,,/B,,/D,/F,/B,/) z2 z !fermata!z6!ped-up! |] %35
V:4
 x9 | x9 | x9 | x9 | D3 D6- | x9 | x9 |[K:bass] C,,6- C,,2 z | z2 z F,,3- F,,3 | %9
 C,,2 x[K:treble] x3 x3 | x9 ||[M:12/8][K:bass] D,,6- D,,2 z x x x ||[M:9/8] z2 z F,,6 || %13
[M:12/8] x3[K:treble] x9 ||[M:9/8] x9 | x9 | x9 |[K:bass] x9 |[K:treble] x9 | x9 | %20
[K:bass] [F,,F,]6 [C,C]3- ||[M:6/8] x6 ||[M:9/8] x9 ||[M:12/8] x3[K:treble] x9 | x12 | %25
 x3 x3[K:bass] G,3- G,3 ||[M:9/8] z2 z F,,6 | x3[K:treble] x6 | x9 | x9 | x9 | x9 |[K:bass] x9 || %33
[M:12/8] x12 | x12 |] %35
V:5
 x9 | x9 | x9 | x9 | x9 | x9 | x9 | x9 | z2 z !arpeggio![Ae]3- [Ae-]3 | =g3 x2 x4 | x9 || %11
[M:12/8] x12 ||[M:9/8] [e^a]3 !arpeggio![Ae]3- [Ae]3 ||[M:12/8] x12 ||[M:9/8] x9 | x9 | x9 | %17
 !arpeggio![A-e]6 A3 | x9 | x9 | x9 ||[M:6/8] x6 ||[M:9/8] !arpeggio![A=e]6- [Ae-]3 || %23
[M:12/8] x12 | x12 | !arpeggio![f^bf']3- [fbf']3 !arpeggio![^Bg]3- B2 c- ||[M:9/8] a3 x2 x4 | x9 | %28
 x9 | x9 | x9 | x9 | [Bd]6- [Bd]3 ||[M:12/8] x12 | x12 |] %35

